svg/fluentui-system-icons/ic_fluent_number_circle_5_48_filled.svg

<svg width="48" height="48" viewBox="0 0 48 48" fill="none" xmlns="http://www.w3.org/2000/svg">
<path d="M24 44C35.0457 44 44 35.0457 44 24C44 12.9543 35.0457 4 24 4C12.9543 4 4 12.9543 4 24C4 35.0457 12.9543 44 24 44ZM28.7496 16.5H21.917L21.5851 21.4784C21.7938 21.4762 22.0161 21.4744 22.2444 21.4734C23.2729 21.4691 24.5699 21.479 25.1882 21.5659C28.8799 22.0847 31.4519 25.498 30.9331 29.1896C30.4143 32.8812 27.001 35.4533 23.3094 34.9345C21.2992 34.652 19.6201 33.5095 18.5936 31.9356C18.2165 31.3574 18.3795 30.5829 18.9578 30.2058C19.536 29.8286 20.3105 29.9917 20.6876 30.5699C21.3365 31.5648 22.392 32.281 23.6573 32.4588C25.9817 32.7855 28.1308 31.166 28.4574 28.8417C28.7841 26.5173 27.1647 24.3682 24.8403 24.0415C24.4419 23.9856 23.3556 23.9688 22.255 23.9734C21.7294 23.9757 21.2344 23.9823 20.8703 23.9884C20.6885 23.9914 20.5397 23.9944 20.4366 23.9965L20.3179 23.999L20.2779 24C19.9268 24.0083 19.588 23.8687 19.345 23.6151C19.1021 23.3616 18.977 23.0176 19.0003 22.6672L19.5003 15.1669C19.5441 14.5102 20.0895 14 20.7476 14H28.7496C29.44 14 29.9996 14.5596 29.9996 15.25C29.9996 15.9404 29.44 16.5 28.7496 16.5Z" fill="#212121"/>
</svg>

<svg xmlns="http://www.w3.org/2000/svg" width="48" height="48"><path d="M24 44c11.046 0 20-8.954 20-20S35.046 4 24 4 4 12.954 4 24s8.954 20 20 20Zm4.75-27.5h-6.833l-.332 4.978.66-.005c1.028-.004 2.325.006 2.943.093a6.75 6.75 0 1 1-6.594 10.37 1.25 1.25 0 1 1 2.094-1.366 4.25 4.25 0 1 0 4.153-6.528c-.4-.056-1.485-.073-2.586-.069a114.31 114.31 0 0 0-1.818.024l-.12.002-.04.001A1.251 1.251 0 0 1 19 22.667l.5-7.5A1.25 1.25 0 0 1 20.748 14h8.002a1.25 1.25 0 1 1 0 2.5Z"/></svg>
